X: 8
T: Shanhu he dangzhu ni zhe huilai
%%abc-version 2.0
%%abcx-abcm2ps-target-version 5.9.1 (29 Sep 2008)
%%abc-creator hum2abc beta
%%abcx-conversion-date 2013/10/02 07:52:29
%%abc-edited-by Helmut Schaffrath
%%humdrum-veritas 852325238
%%humdrum-veritas-data 3877361037
%%continueall 1
%%barnumbers 0
L: 1/8
M: 2/4
K: D
e> e e a [I:setbarnb 1]| 
e d B A | 
A> E A e | 
E4 | 
e> e e a | 
e d B A | 
A> E A B | 
A4 |]  



